-----BEGIN PGP SIGNATURE-----

iQIzBAABCgAdFiEEy/KTaBH3HN90pahbrFqpUNQhODcFAmnbkWwACgkQrFqpUNQh
ODenOA//WoBU2kEmm/Kwg57CKFZziG0PdltBRX22ac+rFb/OGuJJoJsFulMNqG6Z
sEUTRfqRHStosViN9kRD4pQ/WnEPJQfhCTI9b+d3PWxpM4Rlwiw2jku4SdQ/QTwd
5/7hm0sXTPPAccszdQ75yzh91O7alcPtvFio9dZTZcB8VPTlQ7GEWyGcjr77cTp1
hRnmi274n3Rm0h5kkPrtEuf9sD1tLuUa3dhPtoyw9XEaHZxrhh5l6BLqRT5WjTQ8
Pqm/NocAQZS0ww/IDOKQ0rrum5JUaBNHS3J+buYSimdZFXMbyIRxMTkct3l4oWtO
KPNPBwbJ0AmQqlhO5E4yjwrKSBmodQKu66gGJ69+TSoGuBTfCmkYmUYkLVdK/nfG
pQ1i+gzT04zC6F9pxhwgtoVb5H1IUCYYylGvR6IWs0YwXz9w2+KGL9vXJ89fEVMr
jS51BIK6WUFca3dUzZTj80thrz62Ntecwxq9PsUBhG4A/81QuJlcMjaS7rFtxMZT
TjSYLQSYNP7tlNw/SzFSPc2pZrN+oM0Aqh6YSixkXyuy+hq7m34e8cBAVvdgMsF6
vXeqvgJEayGePbztP6LkbOe9Sq2PFX3uBhFrKSpSeWULhVx2ckW0IFDg4gqYNAXf
yMdg0kyFzvJSnqNWVHmBda5nIloJJE6SO12eTZ5x+Bd0xcQaTfo=
=pE1u
-----END PGP SIGNATURE-----
